X:1
T:Title
%%score { 1 | 2 }
L:1/8
M:6/8
K:D
V:1 treble nm="Grand Piano"
V:2 bass 
V:1
 z3 z2[Q:1/4=87] [F,D] | [A,DF]2 [A,EG] [A,FA]2 [F,D] | [A,EG]2 [A,EG] F2 F | B2 B A2 D | %4
[M:5/8] G2 F [CE]2 |[M:1/8] [CE] |[M:3/4] [DF]2 [EG] [FA]2 [DF] |[M:7/8] [DG]2 [DA] [DB]3 [DB] | %8
[M:3/4] [DA]2 [DA] [CG]2 [CE] |[M:5/8] D-D- D3 |[M:1/8] [FA] |[M:3/4] [Fd]>[Fd] [Fd] [Fd]2 [FA] | %12
 B>B B B2 B | A2 G [DF]2 [CE] |[M:5/8] [DF]-[DF]- [DF]3 |[M:1/8] [FA] | %16
[M:3/4] [FA]>[GB] [Gc] [Fd]2 [DF]/[DF]/ |[M:7/8] [DG]2 [DA] [DB]3 [DB] | %18
[M:3/4] [DA] [DA]2 [GB]2 [Gc] |[M:5/8] [Fd]-[Fd]- [Fd]3 |] %20
V:2
 z3 z2 D, | D,2 D, D,2 D, | C,2 C, [D,A,D]2 [D,A,D] | [G,D]2 [G,D] [F,A,D]2 [F,A,] | %4
[M:5/8] [E,A,C]2 [D,A,D] [A,,A,]2 |[M:1/8] [A,,A,] |[M:3/4] [D,A,]2 [D,A,] [D,A,]2 [=C,A,] | %7
[M:7/8] [B,,G,]2 [A,,F,] [G,,G,]3 [G,,G,] |[M:3/4] [A,,F,]2 [A,,F,] [A,,E,]2 [A,,G,] | %9
[M:5/8] [D,F,]-[D,F,]- [D,F,]3 |[M:1/8] [D,A,] |[M:3/4] [D,A,]>[D,A,] [D,A,] [D,A,]2 [D,D] | %12
 [G,DG]>[G,DG] [G,DG] [G,DG]2 [G,DG] | [A,DF]2[K:bass] [A,E] [A,,A,]2 [A,,A,] | %14
[M:5/8] [D,A,]-[D,A,]- [D,A,]3 |[M:1/8] [D,D] |[M:3/4] [D,D]2 [D,A,] [D,A,]2 [=C,A,]/[C,A,]/ | %17
[M:7/8] [B,,G,]2 [A,,F,] [G,,G,]3 [G,,G,] |[M:3/4] [A,,F,] [A,,F,]2 [A,,E,]2 [A,,A,] | %19
[M:5/8] [D,A,]-[D,A,]- [D,A,]3 |] %20

